docs/images/roadmap/icons/evening-icon.svg

<svg width="32" height="32" viewBox="0 0 32 32" fill="none" xmlns="http://www.w3.org/2000/svg">
<path d="M26.1569 22.825C17.9216 22.825 11.3333 16.525 11.3333 8.65C11.3333 6.2 11.8824 3.925 12.9804 2C6.75817 3.575 2 9.175 2 15.825C2 23.7 8.58824 30 16.8235 30C22.4967 30 27.4379 26.85 30 22.3C28.902 22.65 27.6209 22.825 26.1569 22.825ZM16.8235 28.25C9.68628 28.25 3.83007 22.65 3.83007 15.825C3.83007 11.45 6.20915 7.6 9.86928 5.325C9.50327 6.375 9.50327 7.425 9.50327 8.65C9.50327 17.4 17.0065 24.575 26.1569 24.75C23.5948 26.85 20.3007 28.25 16.8235 28.25Z" fill="#BC002D"/>
</svg>

<svg width="32" height="32" fill="none" xmlns="http://www.w3.org/2000/svg"><path d="M26.157 22.825c-8.235 0-14.824-6.3-14.824-14.175 0-2.45.55-4.725 1.647-6.65C6.758 3.575 2 9.175 2 15.825 2 23.7 8.588 30 16.823 30c5.674 0 10.615-3.15 13.177-7.7-1.098.35-2.38.525-3.843.525Zm-9.334 5.425c-7.137 0-12.993-5.6-12.993-12.425 0-4.375 2.38-8.225 6.04-10.5-.367 1.05-.367 2.1-.367 3.325 0 8.75 7.503 15.925 16.654 16.1-2.562 2.1-5.856 3.5-9.334 3.5Z" fill="#BC002D"/></svg>
